assets/img/braze_icons/bar-chart-07.svg

<svg fill="none" height="24" viewBox="0 0 24 24" width="24" xmlns="http://www.w3.org/2000/svg"><g clip-rule="evenodd" fill="#801ed7" fill-rule="evenodd"><path d="m3 2c.55229 0 1 .44772 1 1v14.8c0 .5766.00078.9488.02393 1.2322.02219.2716.05987.3723.08507.4218.09587.1882.24885.3411.43701.437.04945.0252.15016.0629.42183.0851.28333.0231.65561.0239 1.23216.0239h14.8c.5523 0 1 .4477 1 1s-.4477 1-1 1h-14.83848c-.52717 0-.98196 0-1.35655-.0306-.39534-.0323-.78856-.1036-1.16694-.2964-.56449-.2876-1.02343-.7465-1.31105-1.311-.19279-.3784-.26411-.7716-.29641-1.167-.0306-.3745-.03059-.8293-.03057-1.3565v-14.8385c0-.55228.44772-1 1-1z"/><path d="m7 9.5c.55229 0 1 .44772 1 1v7c0 .5523-.44771 1-1 1-.55228 0-1-.4477-1-1v-7c0-.55228.44772-1 1-1z"/><path d="m11.5 4.5c.5523 0 1 .44772 1 1v12c0 .5523-.4477 1-1 1s-1-.4477-1-1v-12c0-.55228.4477-1 1-1z"/><path d="m16 9.5c.5523 0 1 .44772 1 1v7c0 .5523-.4477 1-1 1s-1-.4477-1-1v-7c0-.55228.4477-1 1-1z"/><path d="m20.5 4.5c.5523 0 1 .44772 1 1v12c0 .5523-.4477 1-1 1s-1-.4477-1-1v-12c0-.55228.4477-1 1-1z"/></g></svg>

<svg width="24" height="24" viewBox="0 0 24 24" fill="none" xmlns="http://www.w3.org/2000/svg">
<path fill-rule="evenodd" clip-rule="evenodd" d="M3 2C3.55229 2 4 2.44772 4 3V17.8C4 18.3766 4.00078 18.7488 4.02393 19.0322C4.04612 19.3038 4.0838 19.4045 4.109 19.454C4.20487 19.6422 4.35785 19.7951 4.54601 19.891C4.59546 19.9162 4.69617 19.9539 4.96784 19.9761C5.25117 19.9992 5.62345 20 6.2 20H21C21.5523 20 22 20.4477 22 21C22 21.5523 21.5523 22 21 22H6.16152C5.63435 22 5.17956 22 4.80497 21.9694C4.40963 21.9371 4.01641 21.8658 3.63803 21.673C3.07354 21.3854 2.6146 20.9265 2.32698 20.362C2.13419 19.9836 2.06287 19.5904 2.03057 19.195C1.99997 18.8205 1.99998 18.3657 2 17.8385L2 3C2 2.44772 2.44772 2 3 2Z" fill="#801ED7"/>
<path fill-rule="evenodd" clip-rule="evenodd" d="M7 9.5C7.55229 9.5 8 9.94772 8 10.5V17.5C8 18.0523 7.55229 18.5 7 18.5C6.44772 18.5 6 18.0523 6 17.5V10.5C6 9.94772 6.44772 9.5 7 9.5Z" fill="#801ED7"/>
<path fill-rule="evenodd" clip-rule="evenodd" d="M11.5 4.5C12.0523 4.5 12.5 4.94772 12.5 5.5V17.5C12.5 18.0523 12.0523 18.5 11.5 18.5C10.9477 18.5 10.5 18.0523 10.5 17.5V5.5C10.5 4.94772 10.9477 4.5 11.5 4.5Z" fill="#801ED7"/>
<path fill-rule="evenodd" clip-rule="evenodd" d="M16 9.5C16.5523 9.5 17 9.94772 17 10.5V17.5C17 18.0523 16.5523 18.5 16 18.5C15.4477 18.5 15 18.0523 15 17.5V10.5C15 9.94772 15.4477 9.5 16 9.5Z" fill="#801ED7"/>
<path fill-rule="evenodd" clip-rule="evenodd" d="M20.5 4.5C21.0523 4.5 21.5 4.94772 21.5 5.5V17.5C21.5 18.0523 21.0523 18.5 20.5 18.5C19.9477 18.5 19.5 18.0523 19.5 17.5V5.5C19.5 4.94772 19.9477 4.5 20.5 4.5Z" fill="#801ED7"/>
</svg>
